X:1
T:Lord Arthur's Cairn
T:Lord Arthur's Cairn
T:Alexander Walker
C:Alexander Walker
L:1/8
M:2/2
K:G
V:1 treble 
V:1
 B | G>G, G,/G,/G, dG,B,B, | DG,B,G, EA,CF | G>G, G,/G,/G, DG,B,B | cAdc BGG :| g>d d/d/d BGdG | %6
 ecdB cAAf | g>d d/d/d BGdG | FEDC B,G,G,f | g>d d/d/d BGdG | ecdB cAAc | Bdce dgba | gedc BGG || %13

